static/flat_blocks.svg

<svg xmlns="http://www.w3.org/2000/svg" width="512px" height="512px" viewBox="0 0 512 512" style="overflow: visible;" data-bbox="48.27145025887313 48 412.98603094737285 406.6188134383839"><g data-icon="" transform="matrix(0.8305539929598306, 0, 0, 0.8305539929598306, 43.378188891375544, 43.378190475531554)" data-uid="o-805ed993616c4896a5a1a4e5cd9f44a9"><path d="m98.492 341.354v-31.494c0-5.443-4.45-9.865-9.865-9.865h-38.352c-5.443 0-9.865 4.422-9.865 9.865v31.494l32.59 19.646z" fill="#ec5469" clip-rule="evenodd" fill-rule="evenodd" data-uid="o-bd962d47a47747ffb7a2ad968be063d4"></path><path d="m413.508 211.977 29.041 20.523 29.041-20.523v-31.125c0-5.613-4.62-10.233-10.233-10.233h-37.644c-5.613 0-10.205 4.621-10.205 10.233z" fill="#6fd7a3" clip-rule="evenodd" fill-rule="evenodd" data-uid="o-75c7c96f20cd49e2915faa9aadda9e4b"></path><path d="m267.183 82.628 29.041 22.372 29.041-22.372v-31.126c0-5.641-4.592-10.233-10.233-10.233h-37.616c-5.613 0-10.233 4.592-10.233 10.233z" fill="#ffc243" clip-rule="evenodd" fill-rule="evenodd" data-uid="o-13673ec1f8114b68b13a733a9d759723"></path><path d="m211.879 82.628v-31.069c0-5.669-4.649-10.29-10.29-10.29h-37.474c-5.669 0-10.318 4.621-10.318 10.29v31.069l29.041 17.872z" fill="#ffc243" clip-rule="evenodd" fill-rule="evenodd" data-uid="o-09e135a2f4644ad1be7fc850832202d0"></path><path d="m98.492 82.628v-31.437c0-5.471-4.479-9.922-9.921-9.922h-38.239c-5.443 0-9.921 4.451-9.921 9.922v31.437l29.04 28.872z" fill="#ffc243" clip-rule="evenodd" fill-rule="evenodd" data-uid="o-8f73cf70550749dda49b72db7f018021"></path><path d="m7.5 97.624v99.357c0 8.249 6.746 14.996 14.995 14.996h146.297 174.388c8.249 0 14.995-6.747 14.995-14.996v-99.357c0-8.249-6.746-14.996-14.995-14.996h-17.915-58.082-55.304-58.082-55.305-58.082-17.915c-8.249 0-14.995 6.746-14.995 14.996z" fill="#ffc243" clip-rule="evenodd" fill-rule="evenodd" data-uid="o-8a3014de900445819cddcd3368e69586"></path><path d="m168.792 211.977c-8.249 0-14.995 6.747-14.995 14.996v99.386c0 8.249 6.746 14.996 14.995 14.996h174.388 146.325c8.249 0 14.995-6.747 14.995-14.996v-99.386c0-8.249-6.746-14.996-14.995-14.996h-17.915-58.082-70.328z" fill="#6fd7a3" clip-rule="evenodd" fill-rule="evenodd" data-uid="o-5dd5042b1b0e48558d336eb0a3db281b"></path><path d="m343.18 341.354h-174.388-70.3-58.082-17.915c-8.249 0-14.995 6.747-14.995 14.996v99.357c0 8.277 6.746 15.024 14.995 15.024h320.685c8.249 0 14.995-6.747 14.995-15.024v-99.357c0-8.25-6.746-14.996-14.995-14.996z" fill="#ec5469" clip-rule="evenodd" fill-rule="evenodd" data-uid="o-6a2beeb78c1f49b38432d1f616c55c11"></path><path d="m285.835 211.977h57.345c8.249 0 14.995-6.747 14.995-14.996v-99.357c0-8.249-6.746-14.996-14.995-14.996h-17.915-39.43c8.249 0 14.995 6.747 14.995 14.996v99.357c0 8.249-6.746 14.996-14.995 14.996z" fill="#fea610" clip-rule="evenodd" fill-rule="evenodd" data-uid="o-76035c578e904b8c8d214650a5c1eb5e"></path><path d="m447.155 226.972v99.386c0 8.249-6.746 14.996-14.995 14.996h57.345c8.249 0 14.995-6.747 14.995-14.996v-99.386c0-8.249-6.746-14.996-14.995-14.996h-17.915-39.43c8.248.001 14.995 6.747 14.995 14.996z" fill="#3ec3a4" clip-rule="evenodd" fill-rule="evenodd" data-uid="o-1e34f0bc018e4032be7e494b89500e0b"></path><path d="m358.175 356.349c0-8.249-6.746-14.996-14.995-14.996h-57.345c8.249 0 14.995 6.747 14.995 14.996v99.357c0 8.277-6.746 15.024-14.995 15.024h57.345c8.249 0 14.995-6.747 14.995-15.024z" fill="#e5374e" clip-rule="evenodd" fill-rule="evenodd" data-uid="o-1455bf4d16494c0cbd10535eaca59405"></path><path d="m77.941 51.191v31.437h20.551v-31.437c0-5.471-4.479-9.922-9.921-9.922h-20.551c5.471 0 9.921 4.451 9.921 9.922z" fill="#fea610" clip-rule="evenodd" fill-rule="evenodd" data-uid="o-12ba564a0cdb443d8dcfbe515df776ce"></path><path d="m191.327 51.559v31.069h20.551v-31.069c0-5.669-4.649-10.29-10.29-10.29h-20.551c5.67 0 10.29 4.621 10.29 10.29z" fill="#fea610" clip-rule="evenodd" fill-rule="evenodd" data-uid="o-c61aa7b78c6744ebbe93bca6af8823cb"></path><path d="m304.742 51.502v31.125h20.523v-31.125c0-5.641-4.592-10.233-10.233-10.233h-20.523c5.612 0 10.233 4.592 10.233 10.233z" fill="#fea610" clip-rule="evenodd" fill-rule="evenodd" data-uid="o-0d320246aa7349e7ac6b67aecc174b0b"></path><path d="m451.038 180.851v31.125h20.551v-31.125c0-5.613-4.62-10.233-10.233-10.233h-20.551c5.641 0 10.233 4.621 10.233 10.233z" fill="#3ec3a4" clip-rule="evenodd" fill-rule="evenodd" data-uid="o-470c39789a604f1bb63671ae1bc5f3fb"></path><path d="m98.492 341.354v-31.494c0-5.443-4.45-9.865-9.865-9.865h-20.55c5.443 0 9.865 4.422 9.865 9.865v31.494z" fill="#e5374e" clip-rule="evenodd" fill-rule="evenodd" data-uid="o-f9e1540e3ef14732b4929afb2a319367"></path><path d="m489.505 204.477h-10.415v-23.625c0-9.778-7.955-17.733-17.733-17.733h-37.645c-9.762 0-17.704 7.955-17.704 17.733v23.625h-41.622c.832-2.346 1.289-4.868 1.289-7.496v-99.357c0-12.404-10.091-22.496-22.495-22.496h-10.415v-23.626c0-9.778-7.955-17.733-17.733-17.733h-37.615c-9.778 0-17.733 7.955-17.733 17.733v23.625h-40.304v-23.568c0-9.81-7.98-17.79-17.79-17.79h-37.475c-9.824 0-17.817 7.98-17.817 17.79v23.569h-40.305v-23.938c0-9.606-7.815-17.421-17.421-17.421h-38.24c-9.606 0-17.422 7.815-17.422 17.421v23.938h-10.415c-12.404 0-22.495 10.091-22.495 22.496v99.357c0 12.404 10.091 22.496 22.495 22.496h39.884c4.143 0 7.5-3.358 7.5-7.5s-3.357-7.5-7.5-7.5h-39.884c-4.133 0-7.495-3.362-7.495-7.496v-99.357c0-4.133 3.362-7.496 7.495-7.496h320.685c4.133 0 7.495 3.362 7.495 7.496v99.357c0 4.133-3.362 7.496-7.495 7.496h-246.161c-4.143 0-7.5 3.358-7.5 7.5s3.357 7.5 7.5 7.5h50.567c-.832 2.346-1.289 4.868-1.289 7.496v99.386c0 2.628.457 5.15 1.289 7.496h-41.594v-23.995c0-9.575-7.79-17.365-17.364-17.365h-38.353c-9.575 0-17.365 7.79-17.365 17.365v23.994h-10.415c-12.404 0-22.495 10.091-22.495 22.496v99.357c0 12.42 10.091 22.524 22.495 22.524h139.862c4.143 0 7.5-3.358 7.5-7.5s-3.357-7.5-7.5-7.5h-139.862c-4.133 0-7.495-3.375-7.495-7.524v-99.357c0-4.133 3.362-7.496 7.495-7.496h320.685c4.133 0 7.495 3.362 7.495 7.496v99.357c0 4.149-3.362 7.524-7.495 7.524h-150.18c-4.143 0-7.5 3.358-7.5 7.5s3.357 7.5 7.5 7.5h150.18c12.404 0 22.495-10.104 22.495-22.524v-99.357c0-2.628-.457-5.149-1.289-7.496h125.119c12.404 0 22.495-10.092 22.495-22.496v-99.386c0-12.404-10.091-22.495-22.495-22.495zm-441.595-129.349v-23.938c0-1.312 1.109-2.421 2.422-2.421h38.239c1.312 0 2.421 1.109 2.421 2.421v23.938zm113.387 0v-23.569c0-1.512 1.29-2.79 2.817-2.79h37.475c1.513 0 2.79 1.278 2.79 2.79v23.569zm113.386 0v-23.626c0-1.481 1.252-2.733 2.733-2.733h37.615c1.507 0 2.733 1.226 2.733 2.733v23.625h-43.081zm146.325 105.723c0-1.481 1.238-2.733 2.704-2.733h37.645c1.481 0 2.733 1.252 2.733 2.733v23.625h-43.082zm-373.098 153.003v-23.994c0-1.304 1.062-2.365 2.365-2.365h38.353c1.281 0 2.364 1.083 2.364 2.365v23.994zm449.09-7.496c0 4.133-3.362 7.496-7.495 7.496h-320.713c-4.133 0-7.495-3.363-7.495-7.496v-99.386c0-4.133 3.362-7.496 7.495-7.496h320.713c4.133 0 7.495 3.362 7.495 7.496z" data-uid="o-6791cbc04fae41bc81b4faecf531ce15"></path></g></svg>

<?xml version="1.0" encoding="UTF-8" standalone="no"?>
<svg
   width="512px"
   height="512px"
   viewBox="0 0 512 512"
   style="overflow: visible;"
   data-bbox="48.27145025887313 48 412.98603094737285 406.6188134383839"
   version="1.1"
   id="svg17"
   sodipodi:docname="flat_blocks.svg"
   inkscape:version="1.3.2 (091e20ef0f, 2023-11-25)"
   xmlns:inkscape="http://www.inkscape.org/namespaces/inkscape"
   xmlns:sodipodi="http://sodipodi.sourceforge.net/DTD/sodipodi-0.dtd"
   xmlns="http://www.w3.org/2000/svg"
   xmlns:svg="http://www.w3.org/2000/svg">
  <defs
     id="defs17" />
  <sodipodi:namedview
     id="namedview17"
     pagecolor="#ffffff"
     bordercolor="#000000"
     borderopacity="0.25"
     inkscape:showpageshadow="2"
     inkscape:pageopacity="0.0"
     inkscape:pagecheckerboard="0"
     inkscape:deskcolor="#d1d1d1"
     inkscape:zoom="0.72501557"
     inkscape:cx="-265.51154"
     inkscape:cy="499.98926"
     inkscape:window-width="1920"
     inkscape:window-height="1080"
     inkscape:window-x="0"
     inkscape:window-y="0"
     inkscape:window-maximized="1"
     inkscape:current-layer="g17" />
  <g
     data-icon=""
     transform="matrix(0.83055399,0,0,0.83055399,43.378189,43.37819)"
     data-uid="o-805ed993616c4896a5a1a4e5cd9f44a9"
     id="g17">
    <path
       d="M 98.492,341.354 V 309.86 c 0,-5.443 -4.45,-9.865 -9.865,-9.865 H 50.275 c -5.443,0 -9.865,4.422 -9.865,9.865 v 31.494 L 73,361 Z"
       fill="#ec5469"
       clip-rule="evenodd"
       fill-rule="evenodd"
       data-uid="o-bd962d47a47747ffb7a2ad968be063d4"
       id="path1" />
    <path
       d="m 413.508,211.977 29.041,20.523 29.041,-20.523 v -31.125 c 0,-5.613 -4.62,-10.233 -10.233,-10.233 h -37.644 c -5.613,0 -10.205,4.621 -10.205,10.233 z"
       fill="#6fd7a3"
       clip-rule="evenodd"
       fill-rule="evenodd"
       data-uid="o-75c7c96f20cd49e2915faa9aadda9e4b"
       id="path2" />
    <path
       d="M 267.183,82.628 296.224,105 325.265,82.628 V 51.502 c 0,-5.641 -4.592,-10.233 -10.233,-10.233 h -37.616 c -5.613,0 -10.233,4.592 -10.233,10.233 z"
       fill="#ffc243"
       clip-rule="evenodd"
       fill-rule="evenodd"
       data-uid="o-13673ec1f8114b68b13a733a9d759723"
       id="path3" />
    <path
       d="M 211.879,82.628 V 51.559 c 0,-5.669 -4.649,-10.29 -10.29,-10.29 h -37.474 c -5.669,0 -10.318,4.621 -10.318,10.29 v 31.069 l 29.041,17.872 z"
       fill="#ffc243"
       clip-rule="evenodd"
       fill-rule="evenodd"
       data-uid="o-09e135a2f4644ad1be7fc850832202d0"
       id="path4" />
    <path
       d="M 98.492,82.628 V 51.191 c 0,-5.471 -4.479,-9.922 -9.921,-9.922 H 50.332 c -5.443,0 -9.921,4.451 -9.921,9.922 v 31.437 l 29.04,28.872 z"
       fill="#ffc243"
       clip-rule="evenodd"
       fill-rule="evenodd"
       data-uid="o-8f73cf70550749dda49b72db7f018021"
       id="path5" />
    <path
       d="m 7.5,97.624 v 99.357 c 0,8.249 6.746,14.996 14.995,14.996 H 168.792 343.18 c 8.249,0 14.995,-6.747 14.995,-14.996 V 97.624 c 0,-8.249 -6.746,-14.996 -14.995,-14.996 H 325.265 267.183 211.879 153.797 98.492 40.41 22.495 C 14.246,82.628 7.5,89.374 7.5,97.624 Z"
       fill="#ffc243"
       clip-rule="evenodd"
       fill-rule="evenodd"
       data-uid="o-8a3014de900445819cddcd3368e69586"
       id="path6" />
    <path
       d="m 168.792,211.977 c -8.249,0 -14.995,6.747 -14.995,14.996 v 99.386 c 0,8.249 6.746,14.996 14.995,14.996 H 343.18 489.505 c 8.249,0 14.995,-6.747 14.995,-14.996 v -99.386 c 0,-8.249 -6.746,-14.996 -14.995,-14.996 H 471.59 413.508 343.18 Z"
       fill="#6fd7a3"
       clip-rule="evenodd"
       fill-rule="evenodd"
       data-uid="o-5dd5042b1b0e48558d336eb0a3db281b"
       id="path7" />
    <path
       d="M 343.18,341.354 H 168.792 98.492 40.41 22.495 c -8.249,0 -14.995,6.747 -14.995,14.996 v 99.357 c 0,8.277 6.746,15.024 14.995,15.024 H 343.18 c 8.249,0 14.995,-6.747 14.995,-15.024 V 356.35 c 0,-8.25 -6.746,-14.996 -14.995,-14.996 z"
       fill="#ec5469"
       clip-rule="evenodd"
       fill-rule="evenodd"
       data-uid="o-6a2beeb78c1f49b38432d1f616c55c11"
       id="path8" />
    <path
       d="m 285.835,211.977 h 57.345 c 8.249,0 14.995,-6.747 14.995,-14.996 V 97.624 c 0,-8.249 -6.746,-14.996 -14.995,-14.996 h -17.915 -39.43 c 8.249,0 14.995,6.747 14.995,14.996 v 99.357 c 0,8.249 -6.746,14.996 -14.995,14.996 z"
       fill="#fea610"
       clip-rule="evenodd"
       fill-rule="evenodd"
       data-uid="o-76035c578e904b8c8d214650a5c1eb5e"
       id="path9" />
    <path
       d="m 447.155,226.972 v 99.386 c 0,8.249 -6.746,14.996 -14.995,14.996 h 57.345 c 8.249,0 14.995,-6.747 14.995,-14.996 v -99.386 c 0,-8.249 -6.746,-14.996 -14.995,-14.996 H 471.59 432.16 c 8.248,0.001 14.995,6.747 14.995,14.996 z"
       fill="#3ec3a4"
       clip-rule="evenodd"
       fill-rule="evenodd"
       data-uid="o-1e34f0bc018e4032be7e494b89500e0b"
       id="path10" />
    <path
       d="m 358.175,356.349 c 0,-8.249 -6.746,-14.996 -14.995,-14.996 h -57.345 c 8.249,0 14.995,6.747 14.995,14.996 v 99.357 c 0,8.277 -6.746,15.024 -14.995,15.024 h 57.345 c 8.249,0 14.995,-6.747 14.995,-15.024 z"
       fill="#e5374e"
       clip-rule="evenodd"
       fill-rule="evenodd"
       data-uid="o-1455bf4d16494c0cbd10535eaca59405"
       id="path11" />
    <path
       d="M 77.941,51.191 V 82.628 H 98.492 V 51.191 c 0,-5.471 -4.479,-9.922 -9.921,-9.922 H 68.02 c 5.471,0 9.921,4.451 9.921,9.922 z"
       fill="#fea610"
       clip-rule="evenodd"
       fill-rule="evenodd"
       data-uid="o-12ba564a0cdb443d8dcfbe515df776ce"
       id="path12" />
    <path
       d="m 191.327,51.559 v 31.069 h 20.551 V 51.559 c 0,-5.669 -4.649,-10.29 -10.29,-10.29 h -20.551 c 5.67,0 10.29,4.621 10.29,10.29 z"
       fill="#fea610"
       clip-rule="evenodd"
       fill-rule="evenodd"
       data-uid="o-c61aa7b78c6744ebbe93bca6af8823cb"
       id="path13" />
    <path
       d="m 304.742,51.502 v 31.125 h 20.523 V 51.502 c 0,-5.641 -4.592,-10.233 -10.233,-10.233 h -20.523 c 5.612,0 10.233,4.592 10.233,10.233 z"
       fill="#fea610"
       clip-rule="evenodd"
       fill-rule="evenodd"
       data-uid="o-0d320246aa7349e7ac6b67aecc174b0b"
       id="path14" />
    <path
       d="m 451.038,180.851 v 31.125 h 20.551 v -31.125 c 0,-5.613 -4.62,-10.233 -10.233,-10.233 h -20.551 c 5.641,0 10.233,4.621 10.233,10.233 z"
       fill="#3ec3a4"
       clip-rule="evenodd"
       fill-rule="evenodd"
       data-uid="o-470c39789a604f1bb63671ae1bc5f3fb"
       id="path15" />
    <path
       d="M 98.492,341.354 V 309.86 c 0,-5.443 -4.45,-9.865 -9.865,-9.865 h -20.55 c 5.443,0 9.865,4.422 9.865,9.865 v 31.494 z"
       fill="#e5374e"
       clip-rule="evenodd"
       fill-rule="evenodd"
       data-uid="o-f9e1540e3ef14732b4929afb2a319367"
       id="path16" />
    <path
       d="M 489.505,204.477 H 479.09 v -23.625 c 0,-9.778 -7.955,-17.733 -17.733,-17.733 h -37.645 c -9.762,0 -17.704,7.955 -17.704,17.733 v 23.625 h -41.622 c 0.832,-2.346 1.289,-4.868 1.289,-7.496 V 97.624 c 0,-12.404 -10.091,-22.496 -22.495,-22.496 H 332.765 V 51.502 c 0,-9.778 -7.955,-17.733 -17.733,-17.733 h -37.615 c -9.778,0 -17.733,7.955 -17.733,17.733 V 75.127 H 219.38 V 51.559 c 0,-9.81 -7.98,-17.79 -17.79,-17.79 h -37.475 c -9.824,0 -17.817,7.98 -17.817,17.79 V 75.128 H 105.993 V 51.19 c 0,-9.606 -7.815,-17.421 -17.421,-17.421 h -38.24 c -9.606,0 -17.422,7.815 -17.422,17.421 V 75.128 H 22.495 C 10.091,75.128 0,85.219 0,97.624 v 99.357 c 0,12.404 10.091001,22.49881 22.495,22.496 l 74.546747,-0.0169 c 4.142993,-9.4e-4 22.459243,-3.75779 22.459243,-7.89979 0,-4.142 -18.41473,-7.12607 -22.557726,-7.12382 L 22.495,204.477 C 18.362001,204.47925 15,201.115 15,196.981 V 97.624 c 0,-4.133 3.362,-7.496 7.495,-7.496 H 343.18 c 4.133,0 7.495,3.362 7.495,7.496 v 99.357 c 0,4.133 -3.362,7.496 -7.495,7.496 H 97.019 c -4.143,0 -7.5,3.358 -7.5,7.5 0,4.142 3.357,7.5 7.5,7.5 h 50.567 c -0.832,2.346 -1.289,4.868 -1.289,7.496 v 99.386 c 0,2.628 0.457,5.15 1.289,7.496 H 105.992 V 309.86 c 0,-9.575 -7.79,-17.365 -17.364,-17.365 H 50.275 c -9.575,0 -17.365,7.79 -17.365,17.365 v 23.994 H 22.495 C 10.091,333.854 0,343.945 0,356.35 v 99.357 c 0,12.42 10.091,22.52282 22.495,22.524 l 170.58077,0.0162 c 4.143,4e-4 11.29156,-3.64782 11.29156,-7.78982 0,-4.142 -7.20623,-7.21189 -11.34923,-7.21224 L 22.495,463.231 C 18.362,463.23066 15,459.856 15,455.707 V 356.35 c 0,-4.133 3.362,-7.496 7.495,-7.496 H 343.18 c 4.133,0 7.495,3.362 7.495,7.496 v 99.357 c 0,4.149 -3.362,7.524 -7.495,7.524 H 193 c -4.143,0 -7.5,3.358 -7.5,7.5 0,4.142 3.357,7.5 7.5,7.5 h 150.18 c 12.404,0 22.495,-10.104 22.495,-22.524 V 356.35 c 0,-2.628 -0.457,-5.149 -1.289,-7.496 h 125.119 c 12.404,0 22.495,-10.092 22.495,-22.496 v -99.386 c 0,-12.404 -10.091,-22.495 -22.495,-22.495 z M 47.91,75.128 V 51.19 c 0,-1.312 1.109,-2.421 2.422,-2.421 h 38.239 c 1.312,0 2.421,1.109 2.421,2.421 v 23.938 z m 113.387,0 V 51.559 c 0,-1.512 1.29,-2.79 2.817,-2.79 h 37.475 c 1.513,0 2.79,1.278 2.79,2.79 v 23.569 z m 113.386,0 V 51.502 c 0,-1.481 1.252,-2.733 2.733,-2.733 h 37.615 c 1.507,0 2.733,1.226 2.733,2.733 v 23.625 h -43.081 z m 146.325,105.723 c 0,-1.481 1.238,-2.733 2.704,-2.733 h 37.645 c 1.481,0 2.733,1.252 2.733,2.733 v 23.625 H 421.008 Z M 47.91,333.854 V 309.86 c 0,-1.304 1.062,-2.365 2.365,-2.365 h 38.353 c 1.281,0 2.364,1.083 2.364,2.365 v 23.994 z M 497,326.358 c 0,4.133 -3.362,7.496 -7.495,7.496 H 168.792 c -4.133,0 -7.495,-3.363 -7.495,-7.496 v -99.386 c 0,-4.133 3.362,-7.496 7.495,-7.496 h 320.713 c 4.133,0 7.495,3.362 7.495,7.496 z"
       data-uid="o-6791cbc04fae41bc81b4faecf531ce15"
       id="path17"
       sodipodi:nodetypes="scssssccssscssssccssssccsssscsssssssssssssssssscssccsssscssssssssssssssssssssscsssscsssscccsssscccsssscccssssccscssssccsssssssss" />
  </g>
</svg>
